X: 51
T:Jump at the Sun
M:6/8
L:1/8
C:John Kirkpatrick
N:Very popular as a Chapeloise tune (and sometimes claimed as
N: traditional French)
R:Jig
Z:Steve Mansfield
K:Dm
DFA ^G2A | DFA ^G2A | dAA dAA | AGF E3 | DFA ^G2A |
DFA ^G2A | dAA BAG | FGE D3 :: dAA fed | eAA gfe | fed fed |
e^cA B2A | dAA fed | eAA gfe | dAA BAG | FGE D3 :|
<end>
<start>
